X: 32470
T: PJ & Eddie Moloney's
R: reel
M: 4/4
K: Dmixolydian
|:G2GA BABd|eddB d^cde|g2ge dBAc|BAGE D2DE|
G2GA BABd|eedB d^cde|g2ge dBAc|BAGE DcBA:|
|:g2gb ae(3eee|gedb c'2ba|g2ge dBAc|BAge dcBA|
g2gb ae(3eee|gedb c'2ba|~g3e d2Ac|BAGE DBD2:|

